X:32
T:score125
L:1/8
Q:1/4=96
M:4/4
I:linebreak $
K:F
 z2 f2- f!<(!(c=Bc)!<)! |!>(! d.c._B!>)!.A .G.F.E.D | (C3 D .E).F.G.A |$ %3
 (B3!>(! (3A/G/F/ E2)!>)! z2 | z2 b2- b!<(!(g^f!<)!g |!>(! a).g.=f!>)!.e .d.c.B.A |$ %6
!<(! (G3 A B=Bd!<)!c |!>(! c3 (3_B/A/G/!>)! F2) z2 |] %8
